storage/app/icons/phosphoricons/duotone/screencast-duotone.svg

<svg xmlns="http://www.w3.org/2000/svg" fill="currentColor" viewBox="0 0 256 256"><path d="M224 56v144a8 8 0 0 1-8 8H48a16 16 0 0 0-16-16V56a8 8 0 0 1 8-8h176a8 8 0 0 1 8 8" opacity=".2"/><path d="M232 56v144a16 16 0 0 1-16 16h-72a8 8 0 0 1 0-16h72V56H40v40a8 8 0 0 1-16 0V56a16 16 0 0 1 16-16h176a16 16 0 0 1 16 16M32 184a8 8 0 0 0 0 16 8 8 0 0 1 8 8 8 8 0 0 0 16 0 24 24 0 0 0-24-24m0-32a8 8 0 0 0 0 16 40 40 0 0 1 40 40 8 8 0 0 0 16 0 56.06 56.06 0 0 0-56-56m0-32a8 8 0 0 0 0 16 72.08 72.08 0 0 1 72 72 8 8 0 0 0 16 0 88.1 88.1 0 0 0-88-88"/></svg>

<svg xmlns="http://www.w3.org/2000/svg" viewBox="0 0 256 256" fill="currentColor"><path d="M224,56V200a8,8,0,0,1-8,8H48a16,16,0,0,0-16-16V56a8,8,0,0,1,8-8H216A8,8,0,0,1,224,56Z" opacity="0.2"/><path d="M232,56V200a16,16,0,0,1-16,16H144a8,8,0,0,1,0-16h72V56H40V96a8,8,0,0,1-16,0V56A16,16,0,0,1,40,40H216A16,16,0,0,1,232,56ZM32,184a8,8,0,0,0,0,16,8,8,0,0,1,8,8,8,8,0,0,0,16,0A24,24,0,0,0,32,184Zm0-32a8,8,0,0,0,0,16,40,40,0,0,1,40,40,8,8,0,0,0,16,0A56.06,56.06,0,0,0,32,152Zm0-32a8,8,0,0,0,0,16,72.08,72.08,0,0,1,72,72,8,8,0,0,0,16,0A88.1,88.1,0,0,0,32,120Z"/></svg>
